!!!COM: samuel-ward
!!!OTL: america-the-beautiful
!!!RNB: hooktheoryid: kjDgXVjnoKl
**kern	**text
*clefG2	*
*k[f#c#]	*
*M4/4	*
=1	=1
2.r	.
4a	.
=2	=2
4.a	D
8f#	.
4f#	.
4a	B/D#
=3	=3
4.a	E7sus4
8e	.
4e	A
4f#	.
=4	=4
4g	Emin7
4a	.
4b	A
4cc#	.
=5	=5
[4aL	D
4a]J	B/D#
4r	Emin7
4a	A
=6	=6
4.a	D
8f#	.
4f#	.
4a	B/D#
=7	=7
4.a	Emin7
8e	.
4e	A
4ee	.
=8	=8
4dd#	A7
4ee	.
4ff#	.
4b	E7
=9	=9
2ee	A
4r	A7/C#
4a	.
=10	=10
4.ff#	D
8ff#	.
4ee	F#7
4dd	C#7/F
=11	=11
4.dd	Em
8cc#	.
4cc#	A
4dd	.
=12	=12
4ee	A7
4cc#	.
4b	G/B
4a	A7/C#
=13	=13
2dd	D
2r	.
*-	*-